X: 1
T: Miss Monaghan
M: 4/4
L: 1/8
Z: John Chambers, from several other versions
R: reel
K: D
|:\
"D"D2F{E}D FAAd | "G"B2BA "A7"FABc | "D"d2{c}dB "Bm"ABde | "Em"fede "A7"fee2 |
"D"D2F{E}D FAAd | "G"~B3A "A7"FABc | "D"d2{c}dB ABdB | "A7"AFEG "D"FDD2 :|
|:\
"D"faab afdf | "Em"~g2fd "A7"edBc | "D"d2{c}dB "Bm"ABde | "Em"fede "A7"fee2 |
"D"faab afdf | "Em"~g2fd "A7"edBc | "D"d2{c}dB ABdB | "A7"AFEG "D"FDD2 :|
